src/assets/images/alert-info-icon.svg

<svg width="32" height="32" viewBox="0 0 32 32" fill="none" xmlns="http://www.w3.org/2000/svg">
<circle cx="16" cy="16" r="16" fill="#0273FD"/>
<path d="M14.1546 23.2449C14.1546 24.3289 14.9492 25 16 25C17.026 25 17.8462 24.3031 17.8462 23.2449L17.8462 13.3053C17.8462 12.247 17.026 11.5501 16 11.5501C14.9492 11.5501 14.1546 12.222 14.1546 13.3053L14.1546 23.2449ZM14 8.01407C14.0009 8.54788 14.2119 9.05957 14.5868 9.43696C14.9617 9.81435 15.4699 10.0266 16 10.0273C16.5301 10.0266 17.0383 9.81435 17.4132 9.43696C17.7881 9.05957 17.9991 8.54788 18 8.01407C17.9993 7.48011 17.7884 6.9682 17.4135 6.59064C17.0386 6.21307 16.5302 6.00066 16 6C15.4698 6.00066 14.9614 6.21307 14.5865 6.59064C14.2116 6.9682 14.0007 7.48011 14 8.01407Z" fill="white"/>
</svg>

<svg width="32" height="32" fill="none" xmlns="http://www.w3.org/2000/svg"><circle cx="16" cy="16" r="16" fill="#0273FD"/><path d="M14.155 23.245c0 1.084.794 1.755 1.845 1.755 1.026 0 1.846-.697 1.846-1.755v-9.94c0-1.058-.82-1.755-1.846-1.755-1.05 0-1.845.672-1.845 1.755v9.94zM14 8.015c0 .533.212 1.045.587 1.422s.883.59 1.413.59 1.038-.213 1.413-.59.586-.89.587-1.423a2.02 2.02 0 00-.587-1.423A1.995 1.995 0 0016 6c-.53 0-1.039.213-1.414.59A2.03 2.03 0 0014 8.014z" fill="#fff"/></svg>
